public/assets/logo.svg

<?xml version="1.0" encoding="UTF-8"?>
<svg width="72px" height="72px" viewBox="0 0 72 72" version="1.1" xmlns="http://www.w3.org/2000/svg" xmlns:xlink="http://www.w3.org/1999/xlink">
    <!-- Generator: Sketch 59.1 (86144) - https://sketch.com -->
    <title>logo</title>
    <desc>Created with Sketch.</desc>
    <g id="logo" stroke="none" stroke-width="1" fill="none" fill-rule="evenodd">
        <path d="M34.5819945,13.4736 C34.5810082,13.4576 34.5810082,13.4426 34.5800219,13.4266 C34.4567342,11.1066 32.5630356,9.2636 30.2432548,9.2636 C29.2608986,9.2636 28.3544877,9.5946 27.6265973,10.1526 C26.5781589,10.9566 25.8995836,12.2316 25.8995836,13.6676 C25.8995836,13.7926 25.9064877,13.9156 25.9163507,14.0376 C25.917337,14.0466 25.917337,14.0556 25.9183233,14.0646 C25.9281863,14.1726 25.9410082,14.2786 25.9577753,14.3846 C25.9627068,14.4136 25.9686247,14.4426 25.9735562,14.4716 C25.9873644,14.5486 26.0031452,14.6236 26.0208986,14.6996 C26.0347068,14.7586 26.0504877,14.8176 26.0672548,14.8766 C26.0800767,14.9236 26.0938849,14.9706 26.1086795,15.0166 C26.2615562,15.5036 26.493337,15.9546 26.7931726,16.3516 L26.8355836,16.3966 C27.0397479,16.6566 27.2695562,16.8926 27.5250082,17.1006 L27.5812274,17.1586 L34.5336658,24.2656 L34.5750904,14.0396 C34.5780493,13.9936 34.5780493,13.9456 34.5810082,13.8986 C34.5810082,13.8946 34.5810082,13.8906 34.5819945,13.8856 C34.5849534,13.8176 34.5898849,13.7496 34.5898849,13.6816 C34.5898849,13.6116 34.5849534,13.5426 34.5819945,13.4736" id="Fill-2" fill="#FE336E"></path>
        <path d="M54.6422795,7.979 L54.7349918,7.887 C55.0121425,7.588 55.1837589,7.189 55.1837589,6.75 C55.1837589,5.88 54.5189918,5.166 53.6678137,5.082 C53.6125808,5.077 53.5563616,5.074 53.4991562,5.074 C53.442937,5.074 53.3867178,5.077 53.3314849,5.082 L43.9931836,5.082 C40.8804164,5.082 38.3564712,7.581 38.3564712,10.664 L38.3564712,24.191 L54.6422795,7.979 Z" id="Fill-4" fill="#5808B6"></path>
        <path d="M51.7142466,26.874 C51.7300274,26.874 51.7448219,26.873 51.7606027,26.872 C54.0488219,26.747 55.8665753,24.827 55.8665753,22.476 C55.8665753,21.479 55.5401096,20.56 54.9897534,19.822 C54.1967671,18.759 52.9392329,18.072 51.5229041,18.072 C51.4006027,18.072 51.2783014,18.078 51.1579726,18.088 C51.1490959,18.089 51.1402192,18.089 51.1313425,18.09 C51.0248219,18.1 50.920274,18.114 50.815726,18.131 C50.7871233,18.135 50.7585205,18.141 50.7299178,18.146 C50.6549589,18.16 50.58,18.177 50.5050411,18.194 C50.4468493,18.209 50.3886575,18.225 50.3304658,18.241 C50.2841096,18.254 50.2377534,18.269 50.1923836,18.283 C49.7120548,18.438 49.2672329,18.673 48.8756712,18.977 L48.8312877,19.021 C48.5748493,19.227 48.3420822,19.461 48.1369315,19.719 L48.0807123,19.776 L41.0700822,26.825 L51.156,26.867 C51.2013699,26.871 51.2487123,26.871 51.2950685,26.873 C51.2990137,26.873 51.3039452,26.874 51.3078904,26.874 C51.3749589,26.877 51.4420274,26.882 51.5100822,26.882 C51.5791233,26.882 51.6461918,26.878 51.7142466,26.874" id="Fill-10" fill="#FE336E"></path>
        <path d="M55.944,45.8515 L56.0288219,45.9375 C56.3059726,46.1975 56.673863,46.3565 57.0802192,46.3565 C57.8840548,46.3565 58.5438904,45.7365 58.6218082,44.9425 C58.6267397,44.8915 58.6296986,44.8385 58.6296986,44.7865 C58.6296986,44.7325 58.6267397,44.6805 58.6218082,44.6285 L58.6218082,35.9175 C58.6218082,33.0145 56.3128767,30.6605 53.4624658,30.6605 L40.9601096,30.6605 L55.944,45.8515 Z" id="Fill-12" fill="#FE336E"></path>
        <path d="M32.0878356,30.6601 C29.3173151,30.8271 27.0961644,32.9671 26.882137,35.6571 C26.8712877,35.7971 26.8633973,35.9391 26.8633973,36.0821 C26.8633973,36.2251 26.8712877,36.3671 26.882137,36.5071 L26.882137,50.9391 L26.882137,56.1961 L26.8456438,65.0531 C26.8446575,65.0631 26.8416986,65.0721 26.8407123,65.0821 L26.8407123,65.4171 C26.8416986,65.4241 26.8436712,65.4301 26.8436712,65.4361 C26.9373699,66.2741 27.6514521,66.9261 28.5213699,66.9261 C28.9425205,66.9261 29.3271781,66.7721 29.6230685,66.5181 L29.7887671,66.3541 L36.2007123,60.0241 L36.6376438,59.5931 C37.4355616,58.7151 37.9454795,57.5851 38.0263562,56.3401 L38.0263562,55.6421 L38.0263562,50.9391 L38.0263562,30.6601 L32.7831781,30.6601 L32.0878356,30.6601 Z" id="Fill-14" fill="#5808B6"></path>
        <path d="M15.4401534,10.7167 L15.3474411,10.6247 C15.0476055,10.3477 14.6471671,10.1767 14.2053041,10.1767 C13.3324274,10.1767 12.6144,10.8397 12.5295781,11.6867 C12.5236603,11.7417 12.5216877,11.7977 12.5216877,11.8537 C12.5216877,11.9107 12.5236603,11.9667 12.5295781,12.0217 L12.5295781,21.3167 C12.5295781,24.4157 15.0407014,26.9277 18.1367014,26.9277 L31.7259616,26.9277 L15.4401534,10.7167 Z" id="Fill-20" fill="#5808B6"></path>
    </g>
</svg>

<svg xmlns="http://www.w3.org/2000/svg" width="72" height="72" viewBox="0 0 72 72">
    <g fill="none" fill-rule="evenodd">
        <path d="M0 72h72V0H0z"/>
        <path fill="#FF565E" d="M34.582 13.474l-.002-.047c-.123-2.32-2.017-4.163-4.337-4.163-.982 0-1.889.33-2.616.889a4.419 4.419 0 0 0-1.71 3.885l.001.027c.01.108.023.214.04.32l.016.087a4.446 4.446 0 0 0 .82 1.88l.042.045c.204.26.434.496.689.704l.056.058 6.953 7.107.041-10.226c.003-.046.003-.094.006-.141l.001-.013c.003-.068.008-.136.008-.204 0-.07-.005-.14-.008-.208"/>
        <path fill="#33427C" d="M54.642 7.979l.093-.092c.277-.299.449-.698.449-1.137a1.679 1.679 0 0 0-1.853-1.668h-9.338c-3.113 0-5.637 2.499-5.637 5.582v13.527L54.642 7.979z"/>
        <path fill="#FF565E" d="M51.714 26.874l.047-.002c2.288-.125 4.106-2.045 4.106-4.396 0-.997-.327-1.916-.877-2.654a4.317 4.317 0 0 0-3.832-1.734l-.027.002c-.106.01-.21.024-.315.041-.029.004-.057.01-.086.015-.075.014-.15.031-.225.048l-.175.047-.138.042c-.48.155-.925.39-1.316.694l-.045.044c-.256.206-.489.44-.694.698l-.056.057-7.01 7.049 10.085.042c.045.004.093.004.14.006l.012.001c.067.003.134.008.202.008.07 0 .136-.004.204-.008M55.944 45.852l.085.086c.277.26.645.418 1.051.418a1.558 1.558 0 0 0 1.55-1.57 1.66 1.66 0 0 0-.008-.158v-8.71c0-2.904-2.31-5.258-5.16-5.258H40.96l14.984 15.191z"/>
        <path fill="#33427C" d="M32.088 30.66c-2.77.167-4.992 2.307-5.206 4.997a5.5 5.5 0 0 0-.019.425c0 .143.008.285.02.425v19.689l-.037 8.857-.005.03v.334c0 .007.003.013.003.02.093.837.807 1.49 1.677 1.49.422 0 .806-.155 1.102-.409l.166-.164 6.412-6.33.437-.43a5.34 5.34 0 0 0 1.388-3.254V30.66H32.088zM15.44 10.717l-.093-.092a1.683 1.683 0 0 0-2.818 1.397v9.295a5.61 5.61 0 0 0 5.608 5.61h13.589L15.44 10.718z"/>
    </g>
</svg>
